synths/sOIL.svg

<svg width="42" height="42" viewBox="0 0 42 42" fill="none" xmlns="http://www.w3.org/2000/svg">
<g clip-path="url(#clip0_7277_57991)">
<mask id="mask0_7277_57991" style="mask-type:alpha" maskUnits="userSpaceOnUse" x="0" y="0" width="42" height="42">
<circle cx="21" cy="21" r="21" fill="url(#paint0_linear_7277_57991)"/>
</mask>
<g mask="url(#mask0_7277_57991)">
<circle cx="21" cy="21" r="21" fill="#34EDB3"/>
<circle cx="21" cy="21" r="18.2" fill="white"/>
</g>
<circle cx="21" cy="21" r="16.1" fill="#06061B"/>
<path d="M37.1 21C37.1 29.8918 29.8918 37.1 21 37.1C12.1082 37.1 4.90002 29.8918 4.90002 21C4.90002 12.1082 12.1082 4.90002 21 4.90002C29.8918 4.90002 37.1 12.1082 37.1 21Z" fill="white"/>
<path d="M37.1 21C37.1 29.8918 29.8918 37.1 21 37.1C12.1082 37.1 4.90002 29.8918 4.90002 21C4.90002 12.1082 12.1082 4.90002 21 4.90002C29.8918 4.90002 37.1 12.1082 37.1 21Z" fill="#06061B"/>
<path d="M18.6617 28.6585C18.6983 28.6894 18.6674 28.7477 18.6221 28.7322C17.1355 28.2227 16.0675 26.8312 16.0675 25.1685C16.0675 24.7685 16.3565 23.9938 16.5455 23.5298C16.5653 23.4813 16.6377 23.5039 16.6289 23.5556C16.5924 23.7676 16.5567 24.0151 16.5567 24.171C16.5568 25.9605 17.377 27.5744 18.6617 28.6585ZM26.8518 24.8078C26.8518 21.7848 22.4827 17.4007 21.193 11.2786C21.1505 11.0768 20.7693 11.0768 20.7268 11.2786C19.437 17.4003 15.068 21.7847 15.068 24.8078C15.068 28.0549 17.7055 30.6866 20.9599 30.6866C24.2143 30.6866 26.8518 28.0547 26.8518 24.8078Z" fill="white"/>
</g>
<defs>
<linearGradient id="paint0_linear_7277_57991" x1="21" y1="0" x2="21" y2="61.4091" gradientUnits="userSpaceOnUse">
<stop stop-color="#08021E"/>
<stop offset="1" stop-color="#1F0777"/>
</linearGradient>
<clipPath id="clip0_7277_57991">
<rect width="42" height="42" fill="white"/>
</clipPath>
</defs>
</svg>

<svg xmlns="http://www.w3.org/2000/svg" width="42" height="42" fill="none"><g clip-path="url(#a)"><mask id="c" width="42" height="42" x="0" y="0" maskUnits="userSpaceOnUse" style="mask-type:alpha"><circle cx="21" cy="21" r="21" fill="url(#b)"/></mask><g mask="url(#c)"><circle cx="21" cy="21" r="21" fill="#34EDB3"/><circle cx="21" cy="21" r="18.2" fill="#fff"/></g><circle cx="21" cy="21" r="16.1" fill="#06061B"/><path fill="#fff" d="M37.1 21c0 8.892-7.208 16.1-16.1 16.1-8.892 0-16.1-7.208-16.1-16.1 0-8.892 7.208-16.1 16.1-16.1 8.892 0 16.1 7.208 16.1 16.1Z"/><path fill="#06061B" d="M37.1 21c0 8.892-7.208 16.1-16.1 16.1-8.892 0-16.1-7.208-16.1-16.1 0-8.892 7.208-16.1 16.1-16.1 8.892 0 16.1 7.208 16.1 16.1Z"/><path fill="#fff" d="M18.662 28.659c.036.03.005.089-.04.073a3.76 3.76 0 0 1-2.555-3.563c0-.4.29-1.175.479-1.64.02-.048.092-.025.083.027a4.29 4.29 0 0 0-.072.615c0 1.79.82 3.403 2.105 4.488Zm8.19-3.851c0-3.023-4.37-7.407-5.659-13.53-.043-.201-.424-.201-.466 0-1.29 6.122-5.659 10.507-5.659 13.53 0 3.247 2.638 5.879 5.892 5.879 3.254 0 5.892-2.632 5.892-5.88Z"/></g><defs><linearGradient id="b" x1="21" x2="21" y1="0" y2="61.409" gradientUnits="userSpaceOnUse"><stop stop-color="#08021E"/><stop offset="1" stop-color="#1F0777"/></linearGradient><clipPath id="a"><path fill="#fff" d="M0 0h42v42H0z"/></clipPath></defs></svg>
